RobotController/static/assets/robotDiagram/robotDiagram-PWM.svg

<?xml version="1.0" encoding="UTF-8"?>
<svg enable-background="new 0 0 63.547 25.685" version="1.1" viewBox="0 0 63.547 25.685" xml:space="preserve" xmlns="http://www.w3.org/2000/svg">

	
		<path d="m59.858 25.685h-56.169c-2.037 0-3.689-1.652-3.689-3.689v-18.307c0-2.037 1.652-3.689 3.689-3.689h56.169c2.037 0 3.689 1.652 3.689 3.689v18.307c0 2.037-1.652 3.689-3.689 3.689z" fill="#3B3B3C"/>
		<path d="m59.346 18.725v-12.347c0-0.592 0.48-1.072 1.072-1.072s1.072 0.48 1.072 1.072v12.347c0 0.592-0.48 1.072-1.072 1.072s-1.072-0.48-1.072-1.072z" fill="#1E1E1E" stroke="#1E1E1E" stroke-miterlimit="10"/>
		<path d="m32.229 15.849h-1.497c-0.509 0-0.921-0.412-0.921-0.921v-7.457c0-0.509 0.412-0.921 0.921-0.921h1.497c0.509 0 0.921 0.412 0.921 0.921v7.457c0 0.508-0.413 0.921-0.921 0.921z" fill="#262626" stroke="#262626" stroke-miterlimit="10"/>
		<path d="m2.148 18.812v-12.347c0-0.592 0.48-1.072 1.072-1.072s1.072 0.48 1.072 1.072v12.347c0 0.592-0.48 1.072-1.072 1.072s-1.072-0.48-1.072-1.072z" fill="#1E1E1E" stroke="#1E1E1E" stroke-miterlimit="10"/>
		<path d="m13.621 23.591h-5.101c-0.601 0-1.088-0.487-1.088-1.088v-3.455c0-0.601 0.487-1.088 1.088-1.088h5.101c0.601 0 1.088 0.487 1.088 1.088v3.455c0 0.601-0.487 1.088-1.088 1.088z" fill="#666" stroke="#666" stroke-miterlimit="10"/>
		<path d="m23.114 8.307h-3.564c-0.509 0-0.921-0.412-0.921-0.921v-4.16c0-0.509 0.412-0.921 0.921-0.921h3.564c0.509 0 0.921 0.412 0.921 0.921v4.16c0 0.509-0.412 0.921-0.921 0.921z" fill="#262626" stroke="#262626" stroke-miterlimit="10"/>
		<path d="m26.304 23.591h-5.101c-0.601 0-1.088-0.487-1.088-1.088v-3.455c0-0.601 0.487-1.088 1.088-1.088h5.101c0.601 0 1.088 0.487 1.088 1.088v3.455c1e-3 0.601-0.487 1.088-1.088 1.088z" fill="#666" stroke="#666" stroke-miterlimit="10"/>
		<path d="m41.757 23.591h-5.101c-0.601 0-1.088-0.487-1.088-1.088v-3.455c0-0.601 0.487-1.088 1.088-1.088h5.101c0.601 0 1.088 0.487 1.088 1.088v3.455c0 0.601-0.487 1.088-1.088 1.088z" fill="#666" stroke="#666" stroke-miterlimit="10"/>
		<path d="m54.441 23.591h-5.101c-0.601 0-1.088-0.487-1.088-1.088v-3.455c0-0.601 0.487-1.088 1.088-1.088h5.101c0.601 0 1.088 0.487 1.088 1.088v3.455c0 0.601-0.487 1.088-1.088 1.088z" fill="#666" stroke="#666" stroke-miterlimit="10"/>
	


</svg>

<?xml version="1.0" encoding="iso-8859-1"?>
<!-- Generator: Adobe Illustrator 24.0.1, SVG Export Plug-In . SVG Version: 6.00 Build 0)  -->
<svg version="1.1" xmlns="http://www.w3.org/2000/svg" xmlns:xlink="http://www.w3.org/1999/xlink" x="0px" y="0px"
	 viewBox="0 0 63.547 25.685" style="enable-background:new 0 0 63.547 25.685;" xml:space="preserve">
<g id="PWM">
	<g>
		<path style="fill:#3B3B3C;" d="M59.858,25.685H3.689C1.652,25.685,0,24.033,0,21.996V3.689C0,1.652,1.652,0,3.689,0h56.169
			c2.037,0,3.689,1.652,3.689,3.689v18.307C63.547,24.033,61.895,25.685,59.858,25.685z"/>
		<path style="fill:#1E1E1E;stroke:#1E1E1E;stroke-miterlimit:10;" d="M59.346,18.725V6.378c0-0.592,0.48-1.072,1.072-1.072h0
			c0.592,0,1.072,0.48,1.072,1.072v12.347c0,0.592-0.48,1.072-1.072,1.072h0C59.826,19.797,59.346,19.317,59.346,18.725z"/>
		<path style="fill:#262626;stroke:#262626;stroke-miterlimit:10;" d="M32.229,15.849h-1.497c-0.509,0-0.921-0.412-0.921-0.921
			V7.471c0-0.509,0.412-0.921,0.921-0.921h1.497c0.509,0,0.921,0.412,0.921,0.921v7.457C33.15,15.436,32.737,15.849,32.229,15.849z"
			/>
		<path style="fill:#1E1E1E;stroke:#1E1E1E;stroke-miterlimit:10;" d="M2.148,18.812V6.465c0-0.592,0.48-1.072,1.072-1.072h0
			c0.592,0,1.072,0.48,1.072,1.072v12.347c0,0.592-0.48,1.072-1.072,1.072h0C2.628,19.884,2.148,19.404,2.148,18.812z"/>
		<path style="fill:#666666;stroke:#666666;stroke-miterlimit:10;" d="M13.621,23.591H8.52c-0.601,0-1.088-0.487-1.088-1.088v-3.455
			c0-0.601,0.487-1.088,1.088-1.088h5.101c0.601,0,1.088,0.487,1.088,1.088v3.455C14.709,23.104,14.222,23.591,13.621,23.591z"/>
		<path style="fill:#262626;stroke:#262626;stroke-miterlimit:10;" d="M23.114,8.307H19.55c-0.509,0-0.921-0.412-0.921-0.921v-4.16
			c0-0.509,0.412-0.921,0.921-0.921h3.564c0.509,0,0.921,0.412,0.921,0.921v4.16C24.035,7.895,23.623,8.307,23.114,8.307z"/>
		<path style="fill:#666666;stroke:#666666;stroke-miterlimit:10;" d="M26.304,23.591h-5.101c-0.601,0-1.088-0.487-1.088-1.088
			v-3.455c0-0.601,0.487-1.088,1.088-1.088h5.101c0.601,0,1.088,0.487,1.088,1.088v3.455C27.393,23.104,26.905,23.591,26.304,23.591
			z"/>
		<path style="fill:#666666;stroke:#666666;stroke-miterlimit:10;" d="M41.757,23.591h-5.101c-0.601,0-1.088-0.487-1.088-1.088
			v-3.455c0-0.601,0.487-1.088,1.088-1.088h5.101c0.601,0,1.088,0.487,1.088,1.088v3.455C42.845,23.104,42.358,23.591,41.757,23.591
			z"/>
		<path style="fill:#666666;stroke:#666666;stroke-miterlimit:10;" d="M54.441,23.591H49.34c-0.601,0-1.088-0.487-1.088-1.088
			v-3.455c0-0.601,0.487-1.088,1.088-1.088h5.101c0.601,0,1.088,0.487,1.088,1.088v3.455C55.529,23.104,55.042,23.591,54.441,23.591
			z"/>
	</g>
</g>
<g id="Layer_1">
</g>
</svg>
